X:1
T:Se'l tuo partir mi spiacque hor'il tornar
T:Jacques Arcadelt c.1500-1568
T:Se'l tuo partir mi spiacque hor'il tornar
T:This work is licensed under CC0: creativecommons.org/publicdomain/zero/1.0/
T:Transcribed from 1539 Gardano edition of Arcadelt's Il primo libro di madrigali a 4 Original note values halved
T:This work is licensed under CC0: creativecommons.org/publicdomain/zero/1.0/
T:This work is licensed under CC0: creativecommons.org/publicdomain/zero/1.0/
T:This work is licensed under CC0: creativecommons.org/publicdomain/zero/1.0/
T:This work is licensed under CC0: creativecommons.org/publicdomain/zero/1.0/
T:This work is licensed under CC0: creativecommons.org/publicdomain/zero/1.0/
C:Jacques Arcadelt
C:c.1500-1568
Z:Anonymous
Z:This work is licensed under CC0: creativecommons.org/publicdomain/zero/1.0/
%%score [ 1 2 3 4 ]
L:1/8
M:4/4
K:C
V:1 treble nm="Piano" snm="Pno."
V:2 treble transpose=-12 nm="Piano" snm="Pno."
V:3 treble transpose=-12 nm="Piano" snm="Pno."
V:4 treble nm="Piano" snm="Pno."
V:1
"^Cantus" x8 |"^Instrument change" z8 | z8 | z2 c2 c2 A2 | B2 c2 A4 | G8 | z2 G2 G2 G2 | %7
w: |||Se'l tuo par-|tir mi spiac-|que|ho- r'il tor-|
 c3 d ef e2- | edcB c4 | B2 G2 G2 G2 | c6 B2 | G2 A3 G G2- | G2"^#" ^F2 G4 | E4 G2 G2 | A2 A2 B4 | %15
w: nar _ _ _ m'e|_ _ _ _ no-|ia ho- r'il tor-|nar m'e|no- * * *|* * ia|dun- qu'o- gni|tuo pia- cer|
 c4 A2 A2 | G8 | G8 || z4 c4 | c2 c2 d2 d2 | e4 c4 | z2 A2 B2 G2 | A2 B2 c4 | B4 G4 | A2 A2 B2 B2 | %25
w: vuol pur ch'io|muo-|ia.|Man-|car di tua pre-|sen- za|non ti ve-|der o- gni\_ho-|ra mi|par- s'un tem- po\_as-|
 c4 z2 c2 | d2 e2 f4- | f2 e2 z2 e2 | d2 B2 c2 c2 | B4 B4- | B4 z2 G2 | c2 c2 A2 A2 | %32
w: sai tor-|men- t'e do-|* glia poi|che per la tua\_as-|sen- za|_ e-|ra di quel duol|
 G2 G2 z2 G2- | G2 A4 G2 | A2 A2 G4- | G4 z2 c2 | d2 e2 f4- | f2 ed e2 e2 | d2 B2 c2 c2 | %39
w: fuo- ra tor-|* n'hor co'l|tuo tor- nar|_ l'an-|ti- ca vo-|* * * glia e'n|tal de- sio m'in-|
 B2 B2 z2 G2 | G2 G2 G4 | z2 G2 G2 G2 | c3 d ef e2- | edcB c4 | B2 G2 G2 G2 | c6 B2 | G2 A3 G G2- | %47
w: vo- glia che|ben non so|quel che vi-|ven- * * * do|_ ac- * * qui-|sti quel che vi-|ven- do|ac- qui- * *|
 G2 F2 G4 | E4 G2 G2 | A2 A2 B4 | c4 A2 A2 | G8 | G8 | E4 G2 G2 | A2 A2 B4 | c4 A2 A2 | G8 | G8 |] %58
w: * * sti|s'hor par- ten-|d'hor tor- nan-|do mi con-|tri-|sti|s'hor par- ten-|d'hor tor- nan-|do mi con-|tri-|sti.|
V:2
"^Alto" x8 |"^Instrument change" G,4 G,2 E,2 | F,2 G,2 E,4 | D,2 E,3 D,E,F, | G,2 C,2 F,2 F,2 | %5
w: |Se'l tuo par-|tir mi spiac-|que _ _ _ _|_ s'el tuo par-|
 E,2 E,2 D,4 | E,8- | E,4 z2 C,2 | C,2 C,2 G,4 | z2 D,4 E,2- | E,2 D,C, D,4 | z2 F,2 F,2 D,2 | %12
w: tir mi spiac-|que|_ ho-|r'il tor- nar|m'e no-|* * * ia|dun- qu'o- gni|
 E,2 C,2 D,4 | z2 E,2 E,2 D,2 | E,2 F,2 G,4 | E,4 F,4- | F,2 E,2 D,4 | E,8 || G,4 G,2 G,2 | %19
w: tuo pia- cer|dun- qu'o- gni|tuo pia- cer|vuol pur|_ ch'io muo-|ia.|Man- car di|
 A,2 A,2 B,4 | G,2 G,4 A,2- | A,2 F,2 G,2 C,D, | E,F, G,4"^#" ^F,2 | G,2 D,2 E,2 E,2 | %24
w: tua pre- sen-|za non ti|_ ve- der o- *|* * gni ho-|ra mi par- s'un|
 F,2 E,2 G,4 | G,4 G,2 F,E, | D,C, C,4 B,,2 | C,4 z2 G,2 | G,2 G,2 E,2 F,2 | G,4 G,4 | z2 D,2 E,4 | %31
w: tem- po\_as- sai|tor- men- t'e _|_ _ do- *|glia poi|che per la tua\_as-|sen- za|e- ra|
 C,4 F,2 F,2 | D,2 D,2 z2 E,2- | E,2 F,4 E,2 | F,2 F,2 E,4 | E,3 F, G,2 F,E, | D,C, C,4 B,,2 | %37
w: di quel duol|fuo- ra tor-|* n'hor co'l|tuo tor- nar|l'an- * ti- * *|ca _ vo- *|
 C,4 z2 G,2 | G,2 G,2 E,2 F,2 | G,2 G,2 z2 D,2 | E,4 D,4 | E,8- | E,4 z2 C,2 | C,2 C,2 G,2 G,2 | %44
w: glia e'n|tal de- sio m'in-|vo- glia che|ben non|so|_ quel|che vi- ven- do|
 z2 D,4 E,2- | E,2 D,C, D,4 | z2 F,2 F,2 D,2 | E,2 C,2 D,2 D,2 | z2 E,2 E,2 D,2 | E,2 F,2 G,4 | %50
w: ac- qui-|* * * sti|s'hor par- ten-|d'hor tor- nan- do|s'hor par- ten-|d'hor tor- nan-|
 E,4 F,4- | F,2 E,2 D,4 | E,4 D,4 | z2 E,2 E,2 D,2 | E,2 F,2 G,4 | E,4 F,4- | F,2 E,2 D,4 | E,8 |] %58
w: do mi|_ con- tri-|* sti|s'hor par- ten-|d'hor tor- nan-|do mi|_ con- tri-|sti.|
V:3
"^Tenor" x8 |"^Instrument change" z8 | z2 C,2 C,2 A,,2 | B,,2 C,2 A,,4 | G,,2 A,,4 D,2- | %5
w: ||Se'l tuo par-|tir mi spiac-|que mi spiac-|
 D,2 C,4 B,,2 | C,4 z2 G,,2 | G,,2 G,,2 C,3 D, | E,F, E,4 D,C, | D,C,B,,A,, G,,2 G,2 | %10
w: |que ho-|r'il tor- nar _|_ _ m'e _ _|no- * * * ia m'e|
 G,2 F,2 G,2 G,,2- | G,,2 C,4 B,,2 | C,2 A,,2 G,,4 | z2 C,2 C,2 B,,2 | C,2 D,2 G,,4 | %15
w: no- * ia dun-|* qu'o- gni|tuo pia- cer|dun- qu'o- gni|tuo pia- cer|
 z2 C,2 C,2 D,2- | D,C, C,4 B,,2 | C,8 || E,4 E,2 E,2 | F,2 E,2 G,2 G,2 | z2 E,2 E,2 E,2 | %21
w: vuol pur ch'io|_ _ muo- *|ia.|Man- car di|tua pre- sen- za|non ti ve-|
 F,3 E, D,2 E,2- | E,2 D,2 C,4 | D,4 z2 C,2 | C,2 C,2 D,2 D,2 | E,4 C,3 B,, | A,,2 G,,2 G,,2 F,,2 | %27
w: der _ _ o-|* gni ho-|ra mi|par- s'un tem- po\_as-|sai tor- *|men- t'e do- *|
 G,,4 z2 C,2 | B,,2 E,2 E,2 C,2 | D,2 D,2 z2 D,2 | G,6 E,2- | E,2 C,4 C,2 | B,,2 B,,2 G,,4 | %33
w: glia poi|che per la tua\_as-|sen- za e-|ra di|_ quel duol|fuo- ra tor-|
 C,6 C,2 | C,2 D,2 B,,2 G,,2- | G,,2 C,3 B,,A,,G,, | A,,2 G,,2 G,,2 F,,2 | G,,4 z2 C,2 | %38
w: n'hor co'l|tuo tor- nar l'an-|* ti- * * *|* ca vo- *|glia e'n|
 B,,2 E,2 E,2 C,2 | D,2 D,2 z2 B,,2- | B,,2 C,4 B,,2 | C,4 z2 G,,2 | G,,2 G,,2 C,3 D, | %43
w: tal de- sio m'in-|vo- glia che|_ ben non|so quel|che vi- ven- *|
 E,F, E,4 D,C, | D,C,B,,A,, G,,2 G,2 | G,2"^#" ^F,2 G,2 G,,2- | G,,2 C,4 B,,2 | %47
w: * * do ac- *|qui- * * * sti, ac-|qui- * sti s'hor|_ par- ten-|
 C,2 A,,2 G,,2 G,,2 | z2 C,2 C,2 B,,2 | C,2 D,2 D,2 D,2 | z2 C,4 D,2- | D,C, C,4 B,,2 | C,4 G,,4 | %53
w: d'hor tor- nan- do|s'hor par- ten-|d'hor tor- nan- do|mi con-|* * tri- *|* sti|
 z2 C,2 C,2 B,,2 | C,2 D,2 D,2 D,2 | z2 C,4 D,2- | D,C, C,4 B,,2 | C,8 |] %58
w: s'hor par- ten-|d'hor tor- nan- do|mi con-|* * tri- *|sti.|
V:4
"^Bass" x8 |"^Instrument change" z8 | z8 | z8 | z2 F,2 F,2 D,2 | E,2 C,2 G,4 | C,8- | C,8 | %8
w: ||||Se'l tuo par-|tir mi spiac-|que|_|
 z2 C,2 C,2 C,2 | G,3 A, B,2 C2 | A,4 G,3 F, | E,2 F,4 G,2 | C,2 C2 C2 B,2 | C2 A,2 G,4 | %14
w: ho- r'il tor-|nar- * * m'e|no- * *||ia dun- qu'o- gni|tuo pia- cer|
 z4 z2 G,2 | A,4 F,4 | G,8 | C,8 || C4 C2 C2 | F,2 A,2 G,4 | C,2 C2 C2 A,2 | (3:2:2D4 C2 B,2 C2- | %22
w: vuol|pur ch'io|muo-|ia.|Man- car di|tua pre- sen-|za non ti ve-|der _ _ o-|
 C2 B,2 A,4 | G,2 G,2 C2 C2 | F,2 A,2 G,4 | C,3 D, E,2 F,2- | F,2 E,2 D,4 | C,4 z2 C,2 | %28
w: * gni ho-|ra mi par- s'un|tem- po\_as- sai|tor- * * men-|* t'e do-|glia poi|
 G,2 G,2 A,2 A,2 | G,4 G,4 | z2 G,2 C2 C2 | A,4 F,4 | G,2 G,2 z2 C,2- | C,2 F,4 C,2 | F,2 D,2 E,4 | %35
w: che per la tua\_as-|sen- za|e- ra di|quel duol|fuo- ra tor-|* n'hor co'l|tuo tor- nar|
 C,3 D, E,2 F,2- | F,2 E,2 D,4 | C,4 z2 C,2 | G,2 G,2 A,2 A,2 | G,2 G,2 z2 G,2 | E,2 C,2 G,4 | %41
w: l'an- * * ti-|* ca vo-|glia e'n-|tal de- sio m'in-|vo- glia che|ben non _|
 C,8- | C,8 | z2 C,2 C,2 C,2 | G,3 A, B,2 C2 | A,4 G,3 F, | E,2 F,4 G,2 | C,2 C2 C2 B,2 | %48
w: so|_|quel che vi-|ven- * * d'ac-|qui- * *||sti s'hor par- ten-|
 C2 A,2 G,2 G,2 | z2 D,2 G,2 G,2 | A,4 F,4 | G,8 | C,2 C2 C2 B,2 | C2 A,2 G,2 G,2 | %54
w: d'hor tor- nan- do|tor- nan- do|mi con-|tri-|sti s'hor par- ten-|d'hor tor- nan- do|
 z2 D,2 G,2 G,2 | A,4 F,4 | G,8 | C,8 |] %58
w: tor- nan- do|mi con-|tri-|sti.|

